src/render/svg/Download.svg

<?xml version="1.0" standalone="no"?><!DOCTYPE svg PUBLIC "-//W3C//DTD SVG 1.1//EN" "http://www.w3.org/Graphics/SVG/1.1/DTD/svg11.dtd"><svg t="1694071579812" class="icon" viewBox="0 0 1077 1024" version="1.1" xmlns="http://www.w3.org/2000/svg"  xmlns:xlink="http://www.w3.org/1999/xlink" width="1077" height="1024"><path d="M1024.004851 591.602526a53.894737 53.894737 0 0 1 53.894736 52.385685V808.421053a215.578947 215.578947 0 0 1-212.021894 215.578947H215.583798a215.578947 215.578947 0 0 1-215.578947-212.021895v-166.480842a53.894737 53.894737 0 0 1 107.789473-1.509052V808.421053a107.789474 107.789474 0 0 0 105.957053 107.789473H862.32064a107.789474 107.789474 0 0 0 107.789474-105.957052v-164.756211a53.894737 53.894737 0 0 1 53.894737-53.894737zM538.952219 0a53.894737 53.894737 0 0 1 53.894737 53.894737v524.719158l179.038316-179.038316a53.894737 53.894737 0 0 1 71.141052-4.473263l5.066105 4.473263a53.894737 53.894737 0 0 1 0 76.207158l-266.778947 266.778947a53.786947 53.786947 0 0 1-42.361263 15.629474 53.733053 53.733053 0 0 1-42.361263-15.629474l-266.778948-266.778947a53.894737 53.894737 0 0 1 76.207158-76.207158L485.057482 578.613895V53.894737a53.894737 53.894737 0 0 1 53.894737-53.894737z"  ></path></svg>

<svg xmlns="http://www.w3.org/2000/svg" width="1077" height="1024" class="icon" viewBox="0 0 1077 1024">
    <path d="M1024.00485 591.60253a53.89474 53.89474 0 0 1 53.89474 52.38568v164.43284A215.57895 215.57895 0 0 1 865.87769 1024H215.5838A215.57895 215.57895 0 0 1 .00486 811.9781V645.49727a53.89474 53.89474 0 0 1 107.78947-1.50905v164.43284a107.78947 107.78947 0 0 0 105.95706 107.78948h648.56926a107.78947 107.78947 0 0 0 107.78947-105.95706v-164.7562a53.89474 53.89474 0 0 1 53.89474-53.89474M538.95222 0a53.89474 53.89474 0 0 1 53.89474 53.89474V578.6139l179.03831-179.03832a53.89474 53.89474 0 0 1 71.14105-4.47326l5.0661 4.47326a53.89474 53.89474 0 0 1 0 76.20716L581.31349 742.56168a53.787 53.787 0 0 1-42.36126 15.62948 53.733 53.733 0 0 1-42.36126-15.62948L229.812 475.78274a53.89474 53.89474 0 0 1 76.20716-76.20716l179.03831 179.03831V53.89474A53.89474 53.89474 0 0 1 538.95222 0"/>
</svg>
